X:55
T:An Dro
C:Skolvan "Fest Noz Live"
M:4/4
L:1/4
K:D
DE A>A|G/G/G/A/ G/F/E/F/|\
D/D/D/E/ A>A|GF E2:|\
|:DE/F/ G>G|!
AG/F/ E2|EF/G/A>F|\
AG F>E|1 F/G/F/E/ D/A/A/F/:|2 F/G/F/E/ D2||
